X:24
T:Jerry Holland's
R:reel
C:Dougie MacDonald
O:20th century Cape Breton
D:The Cape Breton Times
B:Jerry Holland - the 2nd Collection
N:Bookings,Mechanicals etc.
N:..... Dougie MacDonald <dougmd68@hotmail.com>
Z:P.S.C.
S:http://www.cranfordpub.com/dougie
Q:333
L:1/8
M:C|
K:C
E|C2 CF EGAB|cdcB cGEc|AD D/D/D FEFA|dedc BcGE|
C2 CF EGAB|cdcB cGEG|(3(FGA) DF EGce|dBGB cCC:|
|:B|c2 cf egcg|afdf ec (3(cBc)|AF (3(FEF) Gcec|d/d/d dc BGAB|
c/c/c cf egcg|afdf ec (3(cBc)|AF (3(FEF) Gefg|ecdB c/c/c c:|
W:Copyrights - Dougie MacDonald (SOCAN)

